Adwaita++-Dark/actions/22/kdenlive-disable-effect.svg

<svg fill="none" height="22" viewBox="0 0 22 22" width="22" xmlns="http://www.w3.org/2000/svg">
  <g fill="#e6ddff">
    <path clip-rule="evenodd" d="m3 5c0-1.108.892-2 2-2h10l-2 2h-6.28516c-.9497 0-1.71484.76514-1.71484 1.71484v6.28516l-.0625.0625-1.9375 1.9375zm14 10.2852v-6.2852l2-2v10c0 1.108-.892 2-2 2h-9-.5-.5l2-2h6.2852c.95 0 1.7148-.7648 1.7148-1.7148zm-7.37109-7.96879.11132-1.31641h2.25977l-4.96289 5c.00127-.222.02152-.4435.06055-.6621l-1.09571-.75587 1.25977-2.16406 1.20898.5625c.34531-.2848.73696-.50935 1.15821-.66406zm5.33589 3.68359-4.98177 5h2.27867l.1113-1.3164c.4213-.1547.8129-.3793 1.1582-.6641l1.209.5625 1.2618-2.164-1.0977-.7559c.039-.2186.0593-.4401.0605-.6621z" fill-rule="evenodd"/>
    <path d="m17 3-14 14 2 2 14-14z"/>
  </g>
</svg>

<svg xmlns="http://www.w3.org/2000/svg" fill="none" width="22" height="22" viewBox="0 0 22 22">
 <path fill="#E6DDFF" fill-rule="evenodd" d="M3 5C3 3.892 3.892 3 5 3H15L13 5H6.71484C5.76514 5 5 5.76514 5 6.71484V13L4.9375 13.0625L3 15V5ZM17 15.2852V9L19 7V17C19 18.108 18.108 19 17 19H8H7.5H7L9 17H15.2852C16.2352 17 17 16.2352 17 15.2852ZM9.62891 7.31641L9.74023 6H12L7.03711 11C7.03838 10.778 7.05863 10.5565 7.09766 10.3379L6.00195 9.58203L7.26172 7.41797L8.4707 7.98047C8.81601 7.69567 9.20766 7.47112 9.62891 7.31641ZM14.9648 11L9.98303 16H12.2617L12.373 14.6836C12.7943 14.5289 13.1859 14.3043 13.5312 14.0195L14.7402 14.582L16.002 12.418L14.9043 11.6621C14.9433 11.4435 14.9636 11.222 14.9648 11Z" clip-rule="evenodd"/>
 <path fill="#E6DDFF" d="M17 3L3 17L5 19L19 5L17 3Z"/>
</svg>
